!!!OTL: Yibeizi wangbuliao maozedong
!!!ARE: Asia, China,ÿHubei Suixian
!! I, 362
!!!SCT: C2128
!!!YEM: Copyright 1995, estate of Helmut Schaffrath.
**kern
*ICvox
*Ivox
*M2/4
*k[f#c#g#]
*A:
{4ee
8cc#
8b
=1
4ee
8cc#
8b
=2
4.a
8cc#
=3
4b
8a
8f#}
=4
{8f#
4f#
8a
=5
8b
8f#
4e
=6
8f#
8a
8f#
8e
=7
8e
4.c#}
=8
{8f#
8e
4f#
=9
8f#
8e
4f#
=10
4.a
8cc#
=11
8b
8a
4f#}
=12
{8f#
4f#
8a
=13
8b
8f#
4e
=14
8f#
8a
8f#
8e
=15
8e
4.c#}
=16
{8a
4a
8cc#
=17
8b
4a
8f#
=18
8f#
4f#
8a
=19
8b
8a
8f#
8e
=20
8f#
8a
8f#
8e
=21
8e
4.c#}
==
!!!AGN: Xiaodiao
!!!ONB: ESAC (Essen Associative Code) Database: SENGANSU
!!!AMT: simple duple
!!!AIN: vox
!!!EED: Helmut Schaffrath
!!!EEV: 1.0
*-
